public/assets/images/player-download.svg

<svg width="39" height="31" viewBox="0 0 39 31" fill="none" xmlns="http://www.w3.org/2000/svg">
<path fill-rule="evenodd" clip-rule="evenodd" d="M30 1.5C30 0.671573 30.6716 0 31.5 0C32.3284 0 33 0.671573 33 1.5V29.5C33 30.3284 32.3284 31 31.5 31C30.6716 31 30 30.3284 30 29.5V1.5ZM24 5.5C24 4.67157 24.6716 4 25.5 4C26.3284 4 27 4.67157 27 5.5V26.5C27 27.3284 26.3284 28 25.5 28C24.6716 28 24 27.3284 24 26.5V5.5ZM37.5 8C36.6716 8 36 8.67157 36 9.5V23.5C36 24.3284 36.6716 25 37.5 25C38.3284 25 39 24.3284 39 23.5V9.5C39 8.67157 38.3284 8 37.5 8ZM18 3.5C18 2.67157 18.6716 2 19.5 2C20.3284 2 21 2.67157 21 3.5V28.5C21 29.3284 20.3284 30 19.5 30C18.6716 30 18 29.3284 18 28.5V3.5ZM1.5 14C0.671573 14 0 14.6716 0 15.5V18.5C0 19.3284 0.671573 20 1.5 20C2.32843 20 3 19.3284 3 18.5V15.5C3 14.6716 2.32843 14 1.5 14ZM6 12.5C6 11.6716 6.67157 11 7.5 11C8.32843 11 9 11.6716 9 12.5V20.5C9 21.3284 8.32843 22 7.5 22C6.67157 22 6 21.3284 6 20.5V12.5ZM13.5 8C12.6716 8 12 8.67157 12 9.5V23.5C12 24.3284 12.6716 25 13.5 25C14.3284 25 15 24.3284 15 23.5V9.5C15 8.67157 14.3284 8 13.5 8Z" fill="#BDC1C6"/>
</svg>

<svg xmlns="http://www.w3.org/2000/svg" width="39" height="31" fill="none"><path fill="#BDC1C6" fill-rule="evenodd" d="M30 1.5a1.5 1.5 0 0 1 3 0v28a1.5 1.5 0 0 1-3 0v-28Zm-6 4a1.5 1.5 0 0 1 3 0v21a1.5 1.5 0 0 1-3 0v-21ZM37.5 8A1.5 1.5 0 0 0 36 9.5v14a1.5 1.5 0 0 0 3 0v-14A1.5 1.5 0 0 0 37.5 8ZM18 3.5a1.5 1.5 0 0 1 3 0v25a1.5 1.5 0 0 1-3 0v-25ZM1.5 14A1.5 1.5 0 0 0 0 15.5v3a1.5 1.5 0 0 0 3 0v-3A1.5 1.5 0 0 0 1.5 14ZM6 12.5a1.5 1.5 0 0 1 3 0v8a1.5 1.5 0 0 1-3 0v-8ZM13.5 8A1.5 1.5 0 0 0 12 9.5v14a1.5 1.5 0 0 0 3 0v-14A1.5 1.5 0 0 0 13.5 8Z" clip-rule="evenodd"/></svg>
